images/icons/lightbulb.svg

<svg viewBox="0 0 28 40" xmlns="http://www.w3.org/2000/svg"><path d="m18 42a2 2 0 0 0 2 2h8a2 2 0 0 0 2-2v-2h-12zm6-38a14 14 0 0 0 -8 25.48v4.52a2 2 0 0 0 2 2h12a2 2 0 0 0 2-2v-4.52a14 14 0 0 0 -8-25.48zm5.71 22.2-1.71 1.19v4.61h-8v-4.6l-1.71-1.19a10 10 0 1 1 11.42 0z" fill="#536dfe" transform="translate(-10 -4)"/></svg>

<svg id="Layer_1" data-name="Layer 1" xmlns="http://www.w3.org/2000/svg" viewBox="0 0 28 40"><defs><style>.cls-1{fill:#536dfe;}</style></defs><title>lightbulb</title><path class="cls-1" d="M18,42a2,2,0,0,0,2,2h8a2,2,0,0,0,2-2V40H18ZM24,4a14,14,0,0,0-8,25.48V34a2,2,0,0,0,2,2H30a2,2,0,0,0,2-2V29.48A14,14,0,0,0,24,4Zm5.71,22.2L28,27.39V32H20V27.4l-1.71-1.19a10,10,0,1,1,11.42,0Z" transform="translate(-10 -4)"/></svg>
